X:1
T:Woodland Flowers
T:Woodland Flowers
T:Felix Burns
C:Felix Burns
L:1/8
Q:3/8=120
M:6/8
K:G
V:1 treble 
V:1
 DGB A2 G | DGB A2 G | E2 C E2 G | e6 | d2 B c2 A | B2 G E2 F | G2 B AGE | D6 | DGB A2 G | %9
 DGB A2 G | E2 C E2 G | e6 | d2 B c2 A | B2 G E2 F | G2 D B2 A | G6 || BAG D2 D | BAG D2 D | %18
 cBA E2 E | cBA E2 E | F2 G F2 E | D2 c B2 A | GAB AGE | D6 | BAG D2 D | BAG D2 D | cBA E2 E | %27
 cBA E2 E | F2 G F2 E | D2 c B2 A | G3 B3 | G6 |] %32

